X:1
T:Qual musico gentil
T:Simone Molinaro Genovese
T:Source : Canzonette a tre voci---Libro secondo---Venetia---R.Amadino---1600. Editor : André Vierendeels ( 26/11/16).
T:Notes : Original clefs : C1, C1, C4 Editorial accidentals above the staff
T:Qual musico gentil
T:©
T:©
T:©
T:©
T:©
C:Simone Molinaro Genovese
Z:©
%%score [ 1 2 3 ]
L:1/8
Q:1/4=100
M:4/4
K:F
V:1 treble nm="Soprano 1" snm="S 1"
V:2 treble nm="Soprano 2" snm="S 2"
V:3 treble-8 nm="Tenor" snm="T"
V:1
 F4 F2 F2 | F2 G2 A4 | G4 G2 A2 | B4 A2 c2- | cc c2 c2 c2 | d4 c2 c2- | c2 =B2 c2 CD | EFGA =BABc | %8
w: Qual mu- si-|co gen- til|pri- ma che|chia- ra Al-|* ta- men- te la|vo- ce'al can-|* * to sno- *||
 d2 c4 =B2 | c4 z2 A2 | G4 F4 | E2 E3 E F2 | G2 A4 G2 | A2 E4 F2- | F2 D2 E4 | F2 G4 G2 | A6 G2 | %17
w: |di, a|l'ar- mo-|nia gli'a- ni- mi'al-|trui pre- pa-|ra, con dol-|* ci ri-|cer- ca- te'in|bas- si|
 F8 | E8 | z4 c4 | A2 A2 d4- | d2 c2 B2 A2 | G2 A2 B4 | A4 A4 | G3 G G2 F2 | E4 c3 B- | BA G2 A4 | %27
w: mo-|di,,|co-|si co- stei|_ che ne la|do- gli'a- ma-|ra, gia|tut- te non o-|blia l'ar- ti|e le fro- di,|
 G3 F E2 D2 | E4 z4 | G4 F4 | z2 E2 D4 | d4 c4 | B4 A4 | G2 GG G2 F2 | E4 D4 | z4 z2 d2 | %36
w: l'ar- ti'e le fro-|di,|fa di|so- spir,|fa di|so- spir|bre- ve con- cer- to'in|pri- ma,|per|
 c2 A2 B4 | A4 B2 BB | A2 F2 G2 F2 | c2 cc B2 G2 | AGAB c4 | c2 cc A2 =B2 | c2 G2 d2 dd | c4 A4 | %44
w: dis- por l'al-|ma in cui le|vo- c'im- pri- ma'in|cu- i le vo- c'im-|pri- * * * ma,|in cui le vo- c'im-|pri- ma, in cui le|vo- c'im-|
 G8 | A8 |] %46
w: pri-|ma.|
V:2
 C4 D2 C2 | D2 E2 F4 | E4 D2 C2 | D2 E2 F2 A2- | AA A2 G2 A2 | B4 A4 | G2 F2 EDEF | GABc d2 D2 | %8
w: Qual mu- si-|co gen- til|pri- ma che|chia- * ra Al-|* ta- men- te la|vo- ce'al|can- to sno- * * *|* * * * * di'al|
 G2 E2 D4 | E4 z2 F2 | E4 D4 | ^C2 C3 C D2 |"^-natural" E2 C2 D4 | E4 C4 | D4 B,2 C2- | %15
w: can- to sno-|di, a|l'ar- mo-|nia gli'a- ni- mi'al-|trui pre- pa-|ra, con|dol- ci ri-|
 C2 D2 E2 E2 | F3 E DC C2- | C2 =B,A, B,4 | C4 G4 | E2 E2 A4- | A2 G2 F2 E2 | D4 D4 | _E8 | C4 F4 | %24
w: * cer- ca- te'in|bas- si mo- * *||di, co-|si co- stei|_ che ne la|do- gli'a-|ma-|ra, gia|
 E2 D2 E2 D2 | ^C4 A3 G- | GF E2 F4 | E3 D2 C =B,2 | C4 E4 | z2 D2 z2 C2 | B,4 B4 | z2 G2 z2 F2 | %32
w: tut- te non o-|blia l'ar- ti'e|_ le fro- di,|l'ar- ti'e le fro-|di, fa|di so-|spir, fa|fa di|
 z2 E2 F4 | E2 EE E2 D2- | D2 ^C2 D2 D2 | E2 F2 G4 | A4 z2 D2 | E2 F2 G4 | F4 D2 DD | E2 F4 E2 | %40
w: so- spir|bre- ve con- cer- to'in|_ pri- ma, per|dis- por l'al-|ma, per|dis- por l'al-|ma in cui le|vo- c'im- pri-|
 F4 A2 AA | G2 E2 F4 | E4 F2 FD | E4 F2 F2- | F2 ED E4 | F8 |] %46
w: ma, in cui le|vo- c'im- pri-|ma, in cui le|vo- c'im- pri-||ma.|
V:3
 F4 B2 A2 | B2 G2 F4 | c4 B2 A2 | G4 F2 f2- | ff f2 e2 f2 | B4 f4 | e2 d2 c4- | c2 BA G4- | G8 | %9
w: Qual mu- si-|co gen- til|pri- ma che|chia- ra Al-|* ta- men- te la|vo- ce'al|can- to sno-|||
 c4 z2 F2 | C4 D4 | A2 A3 A d2 | c2 A2 B4 | A4 A4 | B4 G2 A2- | A2 B2 c2 C2 | F6 E2 | D8 | C8 | %19
w: di, a|l'ar- mo-|nia gli'a- ni- mi'al-|trui pre- pa-|ra, con|dol- ci ri-|* cer- ca- te'in|bas- si|mo-|di,|
 c4 A2 A2 | d6 c2 | B2 A2 G2 F2 | _E8 | F4 F4 | c2 =B2 c2 d2 | A4 F2 AB | c4 F4 | C2 EF G4 | %28
w: co- si co-|stei che|ne la do- gli'a-|ma-|ra, gia|tut- te non o-|blia l'ar- ti'e le|fro- di,|l'ar- ti'e le fro-|
 C4 c4 | z2 B2 z2 A2 | G8 | B4 A4 | G4 F4 | C2 CC C2 D2 | A4 D2 d2 | c2 A2 B4 | A4 z2 G2 | %37
w: di, fa|di so-|spir,|fa di|so- spir|bre- ve con- cer- to'in|pri- ma, per|dis- por l'al-|ma, per|
 c2 d2 G4 | d4 B2 BB | A2 F2 G4 | F4 f2 ff | e2 c2 d4 | c4 B2 BB | A4 F4 | c8 | F8 |] %46
w: dis- por l'al-|ma in cui le|vo- c'im- pri-|ma, in cui le|vo- c'im- pri-|ma, in cui le|vo- c'im-|pri-|ma.|

